X: 6770
T: Chapel Bell, The
R: jig
M: 6/8
K: Edorian
BEE EFA|Bee d2f|edB BAF|d2B AFE|
BEE EFA|Bee d2f|edB BAF|AFE EFA:|
|:Bee efe|def f2e|edB BAF|d2f edB|Bee efe|
[1def f2e|edB BAF|AFE EFA:|
[2def b2a|fed BAF|AFE EFA||

